assets/Pinched fingers/Default/Flat/pinched_fingers_flat_default.svg

<svg width="32" height="32" viewBox="0 0 32 32" fill="none" xmlns="http://www.w3.org/2000/svg">
<path d="M23.2401 2.4C22.8201 2.15 22.3401 2 21.8201 2C20.3501 2 19.1601 3.19 19.1601 4.66C19.1601 5.74 19.8101 6.67 20.7401 7.09C21.0901 7.39 21.6301 7.88 22.1501 8.56C23.2401 9.96 23.7901 11.49 23.7901 13.08C23.7901 15.39 22.6101 17.29 21.6101 18.47C20.1801 20.17 18.4901 21.17 17.4901 21.51C16.1201 21.97 15.3801 23.46 15.8401 24.83C16.2101 25.93 17.2301 26.62 18.3301 26.62C18.6101 26.62 18.8901 26.58 19.1701 26.48C21.4101 25.73 23.8301 23.99 25.6401 21.84C27.2001 19.99 29.0501 16.97 29.0501 13.07C29.0301 6.3 23.4701 2.55 23.2401 2.4Z" fill="#D67D00"/>
<path d="M22.29 3.88003C21.9 3.64003 21.44 3.50003 20.96 3.48003C19.52 3.44003 18.3 4.57003 18.22 6.00003C18.21 6.15003 18.22 6.29003 18.23 6.44003C17.39 6.58003 16.63 7.08003 16.19 7.88003L10.87 17.03C10.17 18.25 8.87 19 7.46 19H3C2.45 19 2 19.45 2 20V29C2 29.55 2.45 30 3 30H10.58C14.3 30 17.95 28.88 20.98 26.72C21.62 26.27 22.25 25.75 22.86 25.17C23.5 24.61 24.11 23.99 24.67 23.33C26.23 21.48 28.08 18.46 28.08 14.56C28.09 7.79003 22.53 4.04003 22.29 3.88003ZM18.03 16.8C18.03 16.56 18.09 16.33 18.21 16.12L21.22 10.67C21.29 10.55 21.34 10.42 21.39 10.3C22.35 11.63 22.83 13.06 22.83 14.56C22.83 14.75 22.82 14.93 22.81 15.12C22.67 16.87 21.19 18.21 19.43 18.21C18.66 18.21 18.03 17.58 18.03 16.8Z" fill="#FFC83D"/>
<path d="M21.4 10.3C21.9 8.99004 21.37 7.47004 20.1 6.77004C19.51 6.44004 18.85 6.34004 18.25 6.45004L18.25 6.45002C18.24 6.35003 18.23 6.25003 18.23 6.15004C18.23 5.92993 18.2567 5.71609 18.307 5.51159C18.6916 5.46774 19.105 5.47721 19.5441 5.56085C21.0656 5.85064 22.5 7.22028 22.5 9.00004C22.5 10.0269 22.2732 10.9011 22.0801 11.4135C21.8893 11.0352 21.6626 10.6639 21.4 10.3Z" fill="#D67D00"/>
</svg>

<svg xmlns="http://www.w3.org/2000/svg" width="32" height="32" fill="none"><path fill="#D67D00" d="M23.24 2.4c-.42-.25-.9-.4-1.42-.4a2.659 2.659 0 0 0-1.08 5.09c.35.3.89.79 1.41 1.47 1.09 1.4 1.64 2.93 1.64 4.52 0 2.31-1.18 4.21-2.18 5.39-1.43 1.7-3.12 2.7-4.12 3.04a2.625 2.625 0 0 0 .84 5.11c.28 0 .56-.04.84-.14 2.24-.75 4.66-2.49 6.47-4.64 1.56-1.85 3.41-4.87 3.41-8.77-.02-6.77-5.58-10.52-5.81-10.67Z"/><path fill="#FFC83D" d="M22.29 3.88c-.39-.24-.85-.38-1.33-.4A2.682 2.682 0 0 0 18.22 6c-.01.15 0 .29.01.44-.84.14-1.6.64-2.04 1.44l-5.32 9.15c-.7 1.22-2 1.97-3.41 1.97H3c-.55 0-1 .45-1 1v9c0 .55.45 1 1 1h7.58c3.72 0 7.37-1.12 10.4-3.28.64-.45 1.27-.97 1.88-1.55.64-.56 1.25-1.18 1.81-1.84 1.56-1.85 3.41-4.87 3.41-8.77.01-6.77-5.55-10.52-5.79-10.68ZM18.03 16.8c0-.24.06-.47.18-.68l3.01-5.45c.07-.12.12-.25.17-.37.96 1.33 1.44 2.76 1.44 4.26 0 .19-.01.37-.02.56-.14 1.75-1.62 3.09-3.38 3.09-.77 0-1.4-.63-1.4-1.41Z"/><path fill="#D67D00" d="M21.4 10.3a2.87 2.87 0 0 0-1.3-3.53 2.78 2.78 0 0 0-1.85-.32c-.01-.1-.02-.2-.02-.3 0-.22.027-.434.077-.638a4.099 4.099 0 0 1 1.237.049C21.066 5.85 22.5 7.22 22.5 9a7.088 7.088 0 0 1-.42 2.414 8.262 8.262 0 0 0-.68-1.114Z"/></svg>
